X:1
T:Lilliard, CMD
T:Lilliard, CMD
T:William James Kirkpatrick (1838-1921)
T:Public Domain Courtesy of the Cyber Hymnal™
C:William James Kirkpatrick (1838-1921)
Z:Public Domain
Z:Courtesy of the Cyber Hymnal™
%%score ( 1 2 ) ( 3 4 )
L:1/8
Q:1/4=110
M:4/4
K:Eb
V:1 treble 
V:2 treble 
V:3 bass 
V:4 bass 
V:1
 [EG]2 | [DG]3 [DF] [DF]2 [Dc]2 | [Ec]3 [EB] [EB]2 [Ge]2 | [Ge]3 [Fd] [Ec]2 [=EG]2 | %4
 ([GB]4 [FA]2) [FA]2 | [FA]3 [EG] [EG]2 [Dc]2 | [Ec]3 [EB] [EB]2 [^Fe]2 | [Ge]3 [EG] [DG]2 [DF]2 | %8
 E6 [EG]2 | [DG]3 [DF] [DF]2 [FB]2 | [EB]3 [E=A] [EA]2 [DB]2 | [Ec]2 [Gd]2 [Ge]2 [E=A]2 | %12
 !fermata!B6 !fermata![FA]2 | [EG]2 [GB]2 [Ge]3 [GB] | [Bd]2 [Ac]2 [=EB]2 [FA]2 | %15
 [EG]3 [EB] [DA]2 [DF]2 | E6 |] %17
V:2
 x2 | x8 | x8 | x8 | x8 | x8 | x8 | x8 | E6 x2 | x8 | x8 | x8 | (D2 E2 F2) x2 | x8 | x8 | x8 | %16
 E6 |] %17
V:3
 [E,B,]2 | [B,,B,]3 [B,,A,] [B,,A,]2 [B,,A,]2 | [E,G,]3 [E,G,] [E,G,]2 [E,B,]2 | %3
 [G,B,]3 [G,B,] [G,B,]2 [G,C]2 | [F,C]6 [D,_C]2 | [E,B,]3 [E,B,] [E,B,]2 [A,B,]2 | %6
 [G,B,]3 [G,B,] [G,B,]2 [=A,C]2 | B,3 [B,,B,] [B,,B,]2 [B,,A,]2 | [E,G,]6 [E,B,]2 | %9
 [B,,B,]3 [B,,B,] [B,,B,]2 [B,,D]2 | [F,C]3 [F,C] [F,C]2 [G,B,]2 | [E,G,]2 [D,=B,]2 [C,C]2 (CF,) | %12
 (F,2 G,2 A,2) [D,B,]2 | [E,B,]2 [E,B,]2 [E,B,]3 [E,E] | [A,E]2 [A,E]2 [G,_D]2 [A,C]2 | %15
 B,3 [B,,G,] [B,,F,]2 [B,,A,]2 | [E,G,]6 |] %17
V:4
 x2 | x8 | x8 | x8 | x8 | x8 | x8 | B,3 x5 | x8 | x8 | x8 | x6 F,2 | B,,6 x2 | x8 | x8 | B,3 x5 | %16
 x6 |] %17

